1-js/09-classes/02-class-inheritance/animal-rabbit-extends.svg

<?xml version="1.0" encoding="UTF-8"?>
<svg width="467px" height="316px" viewBox="0 0 467 316" version="1.1" xmlns="http://www.w3.org/2000/svg" xmlns:xlink="http://www.w3.org/1999/xlink">
    <!-- Generator: sketchtool 55.2 (78181) - https://sketchapp.com -->
    <title>animal-rabbit-extends.svg</title>
    <desc>Created with sketchtool.</desc>
    <g id="inheritance" stroke="none" stroke-width="1" fill="none" fill-rule="evenodd">
        <g id="animal-rabbit-extends.svg">
            <rect id="Rectangle-1" stroke="#E8C48E" stroke-width="2" fill="#FFF9EB" x="242" y="23" width="185" height="64"></rect>
            <text id="constructor:-Animal" font-family="PTMono-Regular, PT Mono" font-size="14" font-weight="normal" fill="#8A704D">
                <tspan x="252" y="42">constructor: Animal</tspan>
                <tspan x="252" y="57">run: function</tspan>
                <tspan x="252" y="72">stop: function</tspan>
            </text>
            <rect id="Rectangle-1-Copy" stroke="#E8C48E" stroke-width="2" fill="#FFF9EB" x="242" y="286" width="185" height="28"></rect>
            <text id="Animal.prototype" font-family="PTMono-Regular, PT Mono" font-size="14" font-weight="normal" fill="#8A704D">
                <tspan x="241" y="15">Animal.prototype</tspan>
            </text>
            <rect id="Rectangle-1-Copy-4" stroke="#E8C48E" stroke-width="2" fill="#FFF9EB" x="242" y="166" width="185" height="48"></rect>
            <text id="constructor:-Rabbit" font-family="PTMono-Regular, PT Mono" font-size="14" font-weight="normal" fill="#8A704D">
                <tspan x="252" y="185">constructor: Rabbit</tspan>
                <tspan x="252" y="200">hide: function</tspan>
            </text>
            <text id="Rabbit.prototype" font-family="PTMono-Regular, PT Mono" font-size="14" font-weight="normal" fill="#8A704D">
                <tspan x="241" y="158">Rabbit.prototype</tspan>
            </text>
            <rect id="Rectangle-1-Copy-2" stroke="#E8C48E" stroke-width="2" fill="#FFF9EB" x="11" y="23" width="105" height="48"></rect>
            <text id="Animal" font-family="PTMono-Regular, PT Mono" font-size="14" font-weight="normal" fill="#8A704D">
                <tspan x="10" y="15">Animal</tspan>
            </text>
            <rect id="Rectangle-1-Copy-3" stroke="#E8C48E" stroke-width="2" fill="#FFF9EB" x="11" y="166" width="105" height="48"></rect>
            <text id="Rabbit" font-family="PTMono-Regular, PT Mono" font-size="14" font-weight="normal" fill="#8A704D">
                <tspan x="10" y="158">Rabbit</tspan>
            </text>
            <text id="new-Rabbit" font-family="PTMono-Regular, PT Mono" font-size="14" font-weight="normal" fill="#8A704D">
                <tspan x="247" y="278">new Rabbit</tspan>
            </text>
            <path id="Line" d="M331.5,110.5 L331.5,138.5 L329.5,138.5 L329.5,110.5 L323.5,110.5 L330.5,96.5 L337.5,110.5 L331.5,110.5 Z" fill="#EE6B47" fill-rule="nonzero"></path>
            <path id="Line-Copy" d="M211,48 L132,48 L132,46 L211,46 L211,40 L225,47 L211,54 L211,48 Z" fill="#EE6B47" fill-rule="nonzero"></path>
            <text id="[[Prototype]]" font-family="PTMono-Regular, PT Mono" font-size="14" font-weight="normal" fill="#8A704D">
                <tspan x="340" y="120">[[Prototype]]</tspan>
            </text>
            <path id="Line-Copy-3" d="M331.5,244.5 L331.5,272.5 L329.5,272.5 L329.5,244.5 L323.5,244.5 L330.5,230.5 L337.5,244.5 L331.5,244.5 Z" fill="#EE6B47" fill-rule="nonzero"></path>
            <text id="[[Prototype]]-Copy" font-family="PTMono-Regular, PT Mono" font-size="14" font-weight="normal" fill="#8A704D">
                <tspan x="340" y="254">[[Prototype]]</tspan>
            </text>
            <text id="prototype" font-family="PTMono-Regular, PT Mono" font-size="14" font-weight="normal" fill="#8A704D">
                <tspan x="139" y="35">prototype</tspan>
            </text>
            <path id="Line-Copy-2" d="M211,190 L132,190 L132,188 L211,188 L211,182 L225,189 L211,196 L211,190 Z" fill="#EE6B47" fill-rule="nonzero"></path>
            <text id="prototype-copy" font-family="PTMono-Regular, PT Mono" font-size="14" font-weight="normal" fill="#8A704D">
                <tspan x="139" y="176">prototype</tspan>
            </text>
            <text id="name:-&quot;White-Rabbit&quot;" font-family="PTMono-Regular, PT Mono" font-size="14" font-weight="normal" fill="#8A704D">
                <tspan x="253" y="304">name: "Белый кролик"</tspan>
            </text>
            <text id="constructor" font-family="PTMono-Regular, PT Mono" font-size="14" font-weight="normal" fill="#8A704D">
                <tspan x="17" y="41">constructor</tspan>
            </text>
            <text id="constructor-copy" font-family="PTMono-Regular, PT Mono" font-size="14" font-weight="normal" fill="#8A704D">
                <tspan x="17" y="183">constructor</tspan>
            </text>
        </g>
    </g>
</svg>

<svg xmlns="http://www.w3.org/2000/svg" width="467" height="316" viewBox="0 0 467 316"><defs><style>@import url(https://fonts.googleapis.com/css?family=Open+Sans:bold,italic,bolditalic%7CPT+Mono);@font-face{font-family:&apos;PT Mono&apos;;font-weight:700;font-style:normal;src:local(&apos;PT MonoBold&apos;),url(/pack/modules/styles/blocks/font/PTMonoBold.woff2) format(&apos;woff2&apos;),url(/pack/modules/styles/blocks/font/PTMonoBold.woff) format(&apos;woff&apos;),url(/pack/modules/styles/blocks/font/PTMonoBold.ttf) format(&apos;truetype&apos;)}</style></defs><g id="inheritance" fill="none" fill-rule="evenodd" stroke="none" stroke-width="1"><g id="animal-rabbit-extends.svg"><path id="Rectangle-1" fill="#FFF9EB" stroke="#E8C48E" stroke-width="2" d="M242 23h185v64H242z"/><text id="constructor:-Animal" fill="#8A704D" font-family="PTMono-Regular, PT Mono" font-size="14" font-weight="normal"><tspan x="252" y="42">constructor: Animal</tspan> <tspan x="252" y="57">run: function</tspan> <tspan x="252" y="72">stop: function</tspan></text><path id="Rectangle-1-Copy" fill="#FFF9EB" stroke="#E8C48E" stroke-width="2" d="M242 286h185v28H242z"/><text id="Animal.prototype" fill="#8A704D" font-family="PTMono-Regular, PT Mono" font-size="14" font-weight="normal"><tspan x="241" y="15">Animal.prototype</tspan></text><path id="Rectangle-1-Copy-4" fill="#FFF9EB" stroke="#E8C48E" stroke-width="2" d="M242 166h185v48H242z"/><text id="constructor:-Rabbit" fill="#8A704D" font-family="PTMono-Regular, PT Mono" font-size="14" font-weight="normal"><tspan x="252" y="185">constructor: Rabbit</tspan> <tspan x="252" y="200">hide: function</tspan></text><text id="Rabbit.prototype" fill="#8A704D" font-family="PTMono-Regular, PT Mono" font-size="14" font-weight="normal"><tspan x="241" y="158">Rabbit.prototype</tspan></text><path id="Rectangle-1-Copy-2" fill="#FFF9EB" stroke="#E8C48E" stroke-width="2" d="M11 23h105v48H11z"/><text id="Animal" fill="#8A704D" font-family="PTMono-Regular, PT Mono" font-size="14" font-weight="normal"><tspan x="10" y="15">Animal</tspan></text><path id="Rectangle-1-Copy-3" fill="#FFF9EB" stroke="#E8C48E" stroke-width="2" d="M11 166h105v48H11z"/><text id="Rabbit" fill="#8A704D" font-family="PTMono-Regular, PT Mono" font-size="14" font-weight="normal"><tspan x="10" y="158">Rabbit</tspan></text><text id="new-Rabbit" fill="#8A704D" font-family="PTMono-Regular, PT Mono" font-size="14" font-weight="normal"><tspan x="247" y="278">new Rabbit</tspan></text><path id="Line" fill="#EE6B47" fill-rule="nonzero" d="M331.5 110.5v28h-2v-28h-6l7-14 7 14h-6z"/><path id="Line-Copy" fill="#EE6B47" fill-rule="nonzero" d="M211 48h-79v-2h79v-6l14 7-14 7v-6z"/><text id="[[Prototype]]" fill="#8A704D" font-family="PTMono-Regular, PT Mono" font-size="14" font-weight="normal"><tspan x="340" y="120">[[Prototype]]</tspan></text><path id="Line-Copy-3" fill="#EE6B47" fill-rule="nonzero" d="M331.5 244.5v28h-2v-28h-6l7-14 7 14h-6z"/><text id="[[Prototype]]-Copy" fill="#8A704D" font-family="PTMono-Regular, PT Mono" font-size="14" font-weight="normal"><tspan x="340" y="254">[[Prototype]]</tspan></text><text id="prototype" fill="#8A704D" font-family="PTMono-Regular, PT Mono" font-size="14" font-weight="normal"><tspan x="139" y="35">prototype</tspan></text><path id="Line-Copy-2" fill="#EE6B47" fill-rule="nonzero" d="M211 190h-79v-2h79v-6l14 7-14 7v-6z"/><text id="prototype-copy" fill="#8A704D" font-family="PTMono-Regular, PT Mono" font-size="14" font-weight="normal"><tspan x="139" y="176">prototype</tspan></text><text id="name:-&quot;White-Rabbit&quot;" fill="#8A704D" font-family="PTMono-Regular, PT Mono" font-size="14" font-weight="normal"><tspan x="253" y="304">name: &quot;White Rabbit&quot;</tspan></text><text id="constructor" fill="#8A704D" font-family="PTMono-Regular, PT Mono" font-size="14" font-weight="normal"><tspan x="17" y="41">constructor</tspan></text><text id="constructor-copy" fill="#8A704D" font-family="PTMono-Regular, PT Mono" font-size="14" font-weight="normal"><tspan x="17" y="183">constructor</tspan></text></g></g></svg>
